!! 00046] TT[KA
!! NN
!!!OTL: Changge yaoyong ge wen hua
!!!ARE: Asia, China,ÿGuangxi, Liuzhou
!! Ethnic Group: Han
!! II, 492, 1)
!!!SCT: C0258
!!!YEM: Copyright 1995, estate of Helmut Schaffrath.
**kern
*ICvox
*Ivox
*M2/4
*k[]
*C:
{8ee
8ee
16dd
16ee
8cc
=1
8ee
16dd
16cc
8ee
16ee
16ee
=2
4dd
4cc
=3
16a
16cc
16g
16a
8cc
8r}
=4
{8a
8a
16cc
16dd
8a
=5
16a
16cc
16a
16g
4cc
=6
8dd
8a
4g
=7
4cc}
{8dd
8a
=8
4cc
16a
16a
8g
=9
2g}
==
!!!AGN: Shange, Bang dong bang
!! Die gleiche Verzierung in den Takten 4/6/8 jeweils auf der letzten +1.
!!!ONB: ESAC (Essen Associative Code) Database: CHINA
!!!AMT: simple duple
!!!AIN: vox
!!!EED: Helmut Schaffrath
!!!EEV: 1.0
*-
